X:1
T:Red Oak, 77.77 D
T:Red Oak, 77.77 D
T:William Howard Doane, 1875
T:Public Domain Courtesy of the Cyber Hymnal™
C:William Howard Doane, 1875
Z:Public Domain
Z:Courtesy of the Cyber Hymnal™
%%score ( 1 2 ) ( 3 4 )
L:1/8
Q:1/4=130
M:6/4
K:F
V:1 treble 
V:2 treble 
V:3 bass 
V:4 bass 
V:1
|: [FA]4 [FA]2 [Fc]4 [FA]2 | (B2 c2) [Fd]2 [Fc]4 z2 | [FA]4 [Fc]2 (c2 B2) [DG]2 | %3
 [CF]4 [CE]2 [CF]6!fine! :| [EG]4 [EG]2 ([EG]2 [FA]2) [EG]2 | [Fc]4 [EB]2 [FA]4 z2 | %6
 [EG]4 [EG]2 ([EG]2 [FA]2) [EG]2 | [Fc]4 [FA]2 [EG]4 z2!D.C.! |] %8
V:2
|: x12 | F4 x8 | x6 F4 x2 | x12 :| x12 | x12 | x12 | x12 |] %8
V:3
|: [F,C]4 [F,C]2 [F,A,]4 [F,C]2 | ([D,B,]2 [C,A,]2) [B,,B,]2 [F,A,]4 z2 | %2
 [F,C]4 [A,,_E]2 (E2 D2) [B,,B,]2 | [C,A,]4 (3(G,{G}A,B,) [F,A,]6 :| [C,C]4 [C,C]2 [C,C]4 [B,C]2 | %5
 [A,C]4 [G,C]2 [F,C]4 z2 | [C,C]4 [C,C]2 [C,C]4 [B,C]2 | [A,C]4 [F,C]2 [C,C]4 z2 |] %8
V:4
|: x12 | x12 | x6 B,,4 x2 | x4 C,2 x6 :| x12 | x12 | x12 | x12 |] %8

